X:1
T:Title
%%score { ( 1 3 ) | ( 2 4 ) }
L:1/8
Q:1/4=100
M:4/4
K:Eb
V:1 treble nm="Grand Piano"
V:3 treble 
V:2 bass 
V:4 bass 
V:1
 [B,GB]2 [B,GB]2 [B,FA]2 [EG]2 | [Ec]2[K:bass][K:treble] [Ec]2 z4 | E2 EE E2 [CF]2 | %3
w: Thoro~Harris * * *|||
 E4[K:bass] z4 | B2 B2 A2 G2 | [Ec]2[K:bass][K:treble] [Ec]2 B4 | =A2 FF d3 c | c4 [DB]2 z2 | %8
w: |||||
 [Fd]2 [Fc]c F G2 A | c2 B2 [B,EG]4 | [GB]2 [FA][DF] D C2 D | F2 E2 GA=AB | [Fd]2 [Fc]c F2 GA | %13
w: |||||
[M:9/8] z3 z e2 z3 | %14
w: |
[M:4/4] .c2 z2 z4[Q:1/4=97][Q:1/4=94][Q:1/4=91][Q:1/4=88][Q:1/4=84][Q:1/4=81][Q:1/4=78] | %15
w: |
[M:3/4] E6 |] %16
w: |
V:2
 E,2 E,2 D,2 B,2 | .[A,,A,]2 .[C,A,]2 [E,G,E]4 | [E,G,B,]2 [E,G,B,][E,G,B,] [C,G,C]2 [A,,A,]2 | %3
 G,2 z2 z4 | [G,B,E]2 [G,B,E]2 [F,B,D]2 [E,B,E]2 | z4 G,2 z2 | %6
 [F,CE]2 [F,=A,][F,A,] [F,B,F]3 [F,A,E] | [F,=A,E]4 [B,,B,]2 z2 | %8
 [B,,B,]2 [D,B,][F,B,D] [A,B,D] [G,B,D]2 [F,B,D] | [E,A,E]2 [E,G,E]2 E,B,,E,G, | %10
 [B,,B,]2 [B,,B,][B,,A,] [B,,F,A,] [B,,F,A,]2 [B,,A,B,] | %11
 [E,A,B,]2 [E,G,B,]2 [E,B,E][K:treble]F_G=G | [B,,B,]2 [D,B,][F,B,D] [A,B,D]2 [G,B,D][F,B,D] | %13
[M:9/8] [E,A,E]2 [_D,G,]- [D,G,] [C,A,]2 [=B,,_G,]3 | %14
[M:4/4] [B,,G,]2 [B,,E,B,][B,,G,] [B,,B,]2 [B,,A,]2 |[M:3/4] [E,G,]6 |] %16
V:3
 x8 | z[K:bass] B,,[K:treble] z D, B4 | x8 | z2[K:bass] _G,2 D2 z2 | x8 | %5
 z[K:bass] B,,[K:treble] z D, z2 _D2 | x8 | x8 | x8 | x8 | x8 | x8 | x8 | %13
[M:9/8] c2 [EB]- [EB] E2- [E=A]3 |[M:4/4] E-[EB]GE [DG]2 [DF]2 |[M:3/4] x6 |] %16
V:4
 x8 | x8 | x8 | [B,,B,]4 [B,,F,B,]2 z2 | x8 | .[A,,A,]2 .[C,A,]2 [E,E]4 | x8 | x8 | x8 | x8 | x8 | %11
 x5[K:treble] x3 | x8 |[M:9/8] x9 |[M:4/4] x8 |[M:3/4] x6 |] %16

